!!!OTL: Wasser und Wein (208), S. 393
!!!id: T0393
**kern
*clefG2
*k[b-]
*F:
{8c
=1
8f
8f
8f
8f
8f
8g
=2
8f
8f
8e
4f}
=3
{8c
=4
8f
8f
8f
4f
8g
=5
4f
8e
4f}
=6
{8c
=7
8b-
8b-
8b-
8b-
8cc
8cc
=8
4a
8f
4a}
=9
{8a
=10
8f
8f
8f
8g
8c
8c
=11
4.c
4f}
==
*-
!!!minrhy: 8
!!!meters: 6/8 ]  ZZ[4
!!!cut: Wasser und Wein (208), S. 393
!!!reg: Luxemburg
!!!trd: Singendes Volk, Esch-Alzette, 1937 posth.
!!!rhy1: X  XXXXXX  XXXX_
!!!rhy2: X  XXXX_X  X_XX_
!!!key: T0393  08  F 6/8 ]  ZZ[4
!!!mod: SECHSTONSKALA DUR ?]  AMBITUS[8
!!!kad: 1131
!!!akz: 1111_1111_4433_12-51_
!!!fot: 'a__av_b__c__
!!!for: 'a__b__c__d__
!!!fok: '/__/__~a_Vd_
!! PHRAS[AUFTAKTIG]
!!!fkt: R&auml;tsel-, Wunsch-, Wettlied
!!!bem: Heffingen, hhh Johann Trierweiler, 10.6.1935
!! THILL; Mathias
!! PR[60] 2K[2] 2G[7] 3K[4] 3G[4] 4A[0] 4Ü[0] 5A[0] 6K[0] 6G[0]
!! 7K[0] 7G[0] 8A[0] MEHR[0] SI[18] ABS[91] SR[9] SP[9]
!! ST[24] 2k[4] 2g[15] 3k[2] 3g[0] 4d[0] 4ü[0] 5d[0] 6k[0] 6g[0]
!! 7k[0] 7g[0] 8d[0] mehr[0] si[22] dm[-4] sr[20] sp[2]
!! 1F[24] 2F[69] 3F[6] 4F[0] LF[0] 2P[0] 3P[1] 4P[0] TRI[0] DF[4] AB[100]
!! TF[0] U3K[0] U3[0] U4[0] U4Ü[0] U5[0] U6K[0] U6[0] U7K[0] U7[0]
!! N1[7] N2K[0] N2[7] N3K[0] N3[35] N4[23] N4Ü[0] N5[23] N6K[0] N6[7]
!!!n7k: 0] N7[0] O1[0] O2K[0] O2[0] O3K[0] O3[0] HÖ[0
!!!RNB: symbol: &auml;      = a umlaut  (UTF-8: Å„)
